cssgg/space-between.svg

<svg viewBox="0 0 24 24" xmlns="http://www.w3.org/2000/svg"><g><path d="M19 5h-4v14h4v-2h-2V7h2V5Z"/><path d="M5 5h4v14H5v-2h2V7H5V5Z"/><path d="M13 7v10h-2V7h2Z"/></g></svg>

<svg
  width="24"
  height="24"
  viewBox="0 0 24 24"
  fill="none"
  xmlns="http://www.w3.org/2000/svg"
>
  <path d="M19 5L15 5L15 19H19V17H17L17 7L19 7V5Z" fill="currentColor" />
  <path d="M5 5L9 5L9 19H5L5 17H7L7 7H5L5 5Z" fill="currentColor" />
  <path d="M13 7V17H11L11 7H13Z" fill="currentColor" />
</svg>
